X: 1443
T: Frank Collins' No 1 Jig
B: australian traditional tunes wiki
M:6/8
L:1/8
R: Jig
Q: 3/8=100
K:D
V:1 Fiddle
|:"A"cde eae|cAce2d|cde eae|"G"BGBd2d|"A"cde eae|
cAc efg|"D"agf "A"edc|1"G"BGBd2d:|2"G"BGBd2d||
"A"aec ecA|aece2f/^g/|a^ga ecA|"G"BGBd2e|
"A"a^gf edc|a^gf edc|"D"dcd "A"cdc|"G"BGB"A"A2A||
V:2 
|:A2c A2c|AEAc2A|A2cA2c|G2DG2B|A2cA2c|
AEAc2e|f2dc2A|1G2DG2B:|2G2DG2B||
c2Ac2A|c2Ac3|ece cAE|G2DG2B|
c2cA2A|c2cA2A|FAFE2F|GDGE2F||
% abcbook-tune_id 6342d53adc76aa1a4274db28


% abcbook-boost 0
% abcbook-tablature 
% abcbook-transpose 
% abcbook-lastupdated 1665324365319
% abcbook-soundfonts 
% abcbook-repeats 1
% NFF Book 2010

